!!!!SEGMENT: pl-wtm--r-1726--001-001_stefani-jozef--piekna-dziewczyna-z-gandawy-kontredans-1.krn
!!!cenid: 18xx:1887
!!!COM: Stefani, Józef
!!!COM-rismID: pe30024097
!!!CDT: 1800/04/16-1876/03/19
!!!CNT: Polish
!!!GTL: Piękna dziewczyna z Gandawy
!!!OTL: Kontredans [1]
!!!OMV: 001
!!!PDT:
!!!AGN: Secular
!!!SMS-siglum: PL-Wtm
!!!SMS-shelfmark: R 1726
!!!SMS-shelfwork: 001-001 G
!!!SMS-variant:
!!!SMS-altvar:
!!!NIFC-rismSourceID: 1001129098
!!!NIFC-rismChildID: 1001129099
!!!NIFC-islandoraID: pl-wtm:28458
!!!URL-pdf-islandora: https://repozytorium.nifc.pl/islandora/object/pl-wtm%3A28458/datastream/PDF/view
!!!URL-scan: https://polish.musicsources.pl/pl/lokalizacje/galeria/rekopisy/6463 @EN{Scan on Polish Music Sources Website} @PL{Skany w portalu Dziedzictwo Muzyki Polskiej w otwartym dostępie}
!!!IIIF:
!!!ONB-nifc: UWAGA: Introduzione, No. 1. Partie perkusji zapisane osobno na końcu rękopisu
!!!OMD: Allegro
!!!AIN: 1 bdrum 1 clars 1 cor 1 empty 1 picco 1 timpa 1 trngl 1 tromp 1 tromt 1 viola 2 violn
!!!key:
**kern	**dynam	**kern	**dynam	**kern	**dynam	**kern	**dynam	**kern	**dynam	**kern	**dynam	**kern	**dynam	**kern	**dynam	**kern	**dynam	**kern	**dynam	**kern	**dynam	**kern	**dynam
*part12	*part12	*part11	*part11	*part10	*part10	*part9	*part9	*part8	*part8	*part7	*part7	*part6	*part6	*part5	*part5	*part4	*part4	*part3	*part3	*part2	*part2	*part1	*part1
*staff12	*	*staff11	*	*staff10	*	*staff9	*	*staff8	*	*staff7	*	*staff6	*	*staff5	*	*staff4	*	*staff3	*	*staff2	*	*staff1	*
*Ibdrum	*	*Itrngl	*	*Itimpa	*	*Iempty	*	*Iviola	*	*Ivioln	*	*Ivioln	*	*Itromt	*	*Itromp	*	*Icor	*	*Iclars	*	*Ipicco	*
*I"G.C.	*	*I"Triangolo	*	*I"Timpani	*	*I"Basſi	*	*I"Viole	*	*I"Violino 2o	*	*I"Violino I	*	*I"Trombone	*	*I"in C Trombe chromatique	*	*I"in d: Corni	*	*I"in C Clarinetto	*	*I"Picolo et Flauto	*
*I'[bass drum]	*	*I'[triangle]	*	*I'[timp]	*	*I'[cb]	*	*I'[vla]	*	*I'[vl 2]	*	*I'[vl I]	*	*I'[trb]	*	*I'[tr in C]	*	*I'[cor in D]	*	*I'[cl in C]	*	*I'[fl picc et fl]	*
*group4	*	*group4	*	*group4	*	*group3	*	*group3	*	*group3	*	*group3	*	*group2	*	*group2	*	*group2	*	*group1	*	*group1	*
*clefF4	*	*clefG2	*	*clefF4	*	*clefF4	*	*clefC3	*	*clefG2	*	*clefG2	*	*clefF4	*	*clefG2	*	*clefG2	*	*clefG2	*	*clefG2	*
*	*	*	*	*	*	*ITrd0c0	*	*	*	*	*	*	*	*	*	*	*	*ITrd6c10	*	*	*	*ITrd0c0	*
*k[]	*	*k[]	*	*k[]	*	*k[f#c#]	*	*k[f#c#]	*	*k[f#c#]	*	*k[f#c#]	*	*k[f#c#]	*	*k[f#c#]	*	*k[f#c#]	*	*k[f#c#]	*	*k[f#c#]	*
*D:	*	*D:	*	*D:	*	*D:	*	*D:	*	*D:	*	*D:	*	*D:	*	*D:	*	*D:	*	*D:	*	*D:	*
*M2/4	*	*M2/4	*	*M2/4	*	*M2/4	*	*M2/4	*	*M2/4	*	*M2/4	*	*M2/4	*	*M2/4	*	*M2/4	*	*M2/4	*	*M2/4	*
*all\right	*	*all\right	*	*all\right	*	*all\right	*	*all\right	*	*all\right	*	*all\right	*	*all\right	*	*all\right	*	*all\right	*	*all\right	*	*all\right	*
*	*	*	*	*	*	*	*	*	*	*	*	*	*	*	*	*^	*	*	*	*	*	*	*
!	!	!	!	!LO:TX:a:B:t=All.o.	!	!	!	!	!	!	!	!	!	!	!LO:DY:rj:t=for	!	!	!	!	!LO:DY:rj:t=for	!	!	!	!
!	!	!	!	!LO:TX:a:t=Introduzione	!	!	!	!	!	!	!	!	!	!	!	!	!	!	!	!	!	!	!LO:TX:a:t=Introduzione	!
8r	.	8r	.	8r	.	8r	.	8r	.	8r	.	8r	.	8A\	f	8a/	8a\	.	8a 8A\	f	8r	.	8r	.
=1	=1	=1	=1	=1	=1	=1	=1	=1	=1	=1	=1	=1	=1	=1	=1	=1	=1	=1	=1	=1	=1	=1	=1	=1
2r	.	2r	.	2r	.	2r	.	2r	.	2r	.	2r	.	8A\L	.	8a/L	8a\L	.	8aL 8A\	.	2r	.	2r	.
.	.	.	.	.	.	.	.	.	.	.	.	.	.	16A\L	.	16a/L	16a\L	.	16aL 16A\	.	.	.	.	.
.	.	.	.	.	.	.	.	.	.	.	.	.	.	16A\JJ	.	16a/JJ	16a\JJ	.	16aJJ 16A\	.	.	.	.	.
.	.	.	.	.	.	.	.	.	.	.	.	.	.	8A\L	.	8a/L	8a\L	.	8aL 8A\	.	.	.	.	.
!	!	!	!	!	!	!	!	!	!	!	!	!	!	!	!	!	!	!	!	!	!	!	!LO:TX:a:t=due	!
.	.	.	.	.	.	.	.	.	.	.	.	.	.	8A\J	.	8a/J	8a\J	.	8aJ 8A\	.	.	.	.	.
=2	=2	=2	=2	=2	=2	=2	=2	=2	=2	=2	=2	=2	=2	=2	=2	=2	=2	=2	=2	=2	=2	=2	=2	=2
*	*	*	*	*	*	*	*	*	*	*	*	*	*	*	*	*	*	*	*^	*	*^	*	*	*
!	!	!	!	!	!	!	!	!	!	!LO:TX:a:t=8va	!	!	!LO:DY:rj	!	!	!	!	!	!	!	!	!	!	!	!	!
2r	.	2r	.	2r	.	4GG/	.	16b\LL	f	16bb\LLyy	.	16bb\LL	f	4G\	.	4b/	4g\	.	4g/	4e\	.	4b/	4g\	.	16bb\LL	.
.	.	.	.	.	.	.	.	16a\	.	16aa\yy	.	16aa\	.	.	.	.	.	.	.	.	.	.	.	.	16aa\	.
.	.	.	.	.	.	.	.	16g\	.	16gg\yy	.	16gg\	.	.	.	.	.	.	.	.	.	.	.	.	16gg\	.
.	.	.	.	.	.	.	.	16f#\JJ	.	16ff#\JJyy	.	16ff#\JJ	.	.	.	.	.	.	.	.	.	.	.	.	16ff#\JJ	.
.	.	.	.	.	.	4r	.	16e\LL	.	16ee\LLyy	.	16ee\LL	.	4r	.	4r	4ryy	.	4r	4ryy	.	4r	4ryy	.	16ee\LL	.
.	.	.	.	.	.	.	.	16d\	.	16dd\yy	.	16dd\	.	.	.	.	.	.	.	.	.	.	.	.	16dd\	.
.	.	.	.	.	.	.	.	16c#\	.	16cc#\yy	.	16cc#\	.	.	.	.	.	.	.	.	.	.	.	.	16cc#\	.
.	f	.	.	.	f	.	.	16B\JJ	.	16b\JJyy	.	16b\JJ	.	.	.	.	.	.	.	.	.	.	.	.	16b\JJ	.
=3	=3	=3	=3	=3	=3	=3	=3	=3	=3	=3	=3	=3	=3	=3	=3	=3	=3	=3	=3	=3	=3	=3	=3	=3	=3	=3
!	!	!	!	!	!	!	!	!	!	!	!	!	!	!	!	!	!	!	!	!	!	!	!	!	!LO:TX:a:t=col Vo. 1o.	!
4Ra/	.	4Ree\	.	4AA/	.	4AA/	.	16A/LL	.	16a/LLyy	.	16a/LL	.	4A\	.	4a/	4f#\	.	4f#/	4d\	.	4a/	4f#\	.	16a/LLyy	.
.	.	.	.	.	.	.	.	16G#X/	.	16g#X/yy	.	16g#X/	.	.	.	.	.	.	.	.	.	.	.	.	16g#X/yy	.
.	.	.	.	.	.	.	.	16A/	.	16a/yy	.	16a/	.	.	.	.	.	.	.	.	.	.	.	.	16a/yy	.
.	.	.	.	.	.	.	.	16B/JJ	.	16b/JJyy	.	16b/JJ	.	.	.	.	.	.	.	.	.	.	.	.	16b/JJyy	.
4r	.	4r	.	4r	.	4r	.	16c#\LL	.	16cc#\LLyy	.	16cc#\LL	.	4r	.	4r	4ryy	.	4r	4ryy	.	4r	4ryy	.	16cc#\LLyy	.
.	.	.	.	.	.	.	.	16d\	.	16dd\yy	.	16dd\	.	.	.	.	.	.	.	.	.	.	.	.	16dd\yy	.
.	.	.	.	.	.	.	.	16e\	.	16ee\yy	.	16ee\	.	.	.	.	.	.	.	.	.	.	.	.	16ee\yy	.
.	.	.	.	.	.	.	.	16f#\JJ	.	16ff#\JJyy	.	16ff#\JJ	.	.	.	.	.	.	.	.	.	.	.	.	16ff#\JJyy	.
*	*	*	*	*	*	*	*	*	*	*	*	*	*	*	*	*	*	*	*v	*v	*	*	*	*	*	*
=4	=4	=4	=4	=4	=4	=4	=4	=4	=4	=4	=4	=4	=4	=4	=4	=4	=4	=4	=4	=4	=4	=4	=4	=4	=4
4Ra/	.	4Ree\	.	2AAT/	<[	4A\	.	16g\LL	.	16gg\LLyy	.	16gg\LL	.	4AA/	.	4a/	4e\	.	4e 4A/	.	4cc#/	4g\	.	16gg\LLyy	.
.	.	.	.	.	.	.	.	16f#\	.	16ff#\yy	.	16ff#\	.	.	.	.	.	.	.	.	.	.	.	16ff#\yy	.
.	.	.	.	.	.	.	.	16e\	.	16ee\yy	.	16ee\	.	.	.	.	.	.	.	.	.	.	.	16ee\yy	.
.	.	.	.	.	.	.	.	16f#\JJ	.	16ff#\JJyy	.	16ff#\JJ	.	.	.	.	.	.	.	.	.	.	.	16ff#\JJyy	.
4r	.	4r	.	.	.	4r	.	16g\LL	.	16gg\LLyy	.	16gg\LL	.	4r	.	4r	4ryy	.	4r	.	4r	4ryy	.	16gg\LLyy	.
.	.	.	.	.	.	.	.	16a\	.	16aa\yy	.	16aa\	.	.	.	.	.	.	.	.	.	.	.	16aa\yy	.
.	.	.	.	.	.	.	.	16b\	.	16bb\yy	.	16bb\	.	.	.	.	.	.	.	.	.	.	.	16bb\yy	.
.	.	.	.	.	.	.	.	16cc#\JJ	.	16ccc#\JJyy	.	16ccc#\JJ	.	.	.	.	.	.	.	.	.	.	.	16ccc#\JJyy	.
*	*	*	*	*	*	*	*	*	*	*	*	*	*	*	*	*v	*v	*	*	*	*v	*v	*	*	*
!!LO:PB:g=original
=5||	=5||	=5||	=5||	=5||	=5||	=5||	=5||	=5||	=5||	=5||	=5||	=5||	=5||	=5||	=5||	=5||	=5||	=5||	=5||	=5||	=5||	=5||	=5||
*	*	*	*	*	*	*k[f#c#]	*	*k[f#c#]	*	*k[f#c#]	*	*k[f#c#]	*	*k[f#c#]	*	*k[]	*	*	*	*k[b-]	*	*k[f#c#]	*
*M6/8	*	*M6/8	*	*M6/8	*	*M6/8	*	*M6/8	*	*M6/8	*	*M6/8	*	*M6/8	*	*M6/8	*	*M6/8	*	*M6/8	*	*M6/8	*
!	!	!	!	!	!	!	!	!	!	!	!	!	!	!	!	!	!	!	!	!LO:SIC:v:n=2:s=4f#	!	!	!
!	!	!	!	!LO:TX:a:t=No I.	!	!	!LO:DY:rj	!	!	!LO:TX:t=P:problem=mixed beam	!LO:TX:t=P:problem=zamazany zapis w tt. nr 5-6	!	!	!	!	!LO:TX:t=P:problem=błędnie wpisane znaki przykluczowe	!	!	!	!LO:TX:t=P:problem=błędnie wpisane znaki przykluczowe [b-]	!	!LO:TX:a:t=No I	!
4Ra/	.	4Ree\	.	4D\	.	8D\L	p	8dd\L	.	8dd\L	.	4ddd\	.	4D\	.	4a 4d/	.	4d 4F#/	.	4dd 4f/	.	4ddd\	.
.	.	.	.	.	.	8r	.	8r	p	8r	.	.	.	.	.	.	.	.	.	.	.	.	.
!	!	!	!	!	!	!	!LO:DY:rj	!	!	!	!LO:DY:rj	!	!	!	!	!	!	!	!	!	!	!	!
8r	.	8r	.	8r	.	8D\J	p	8d\J	.	8f#J 8A/	p	8r	.	8r	.	8r	.	8r	.	8r	.	8r	.
*	*	*	*	*	*	*rep	*	*rep	*	*	*	*	*	*	*	*	*	*	*	*	*	*	*
4r	.	4r	.	4r	.	8D\L	.	8dd\L	.	8f#L 8A/	.	4r	.	4r	.	4r	.	4r	.	4r	.	4r	.
.	.	.	.	.	.	8r	.	8r	.	8r	.	.	.	.	.	.	.	.	.	.	.	.	.
8r	.	8r	.	8r	.	8D\J	.	8d\J	.	8f#J 8A/	.	8r	.	8r	.	8r	.	8r	.	8r	.	8r	.
*	*	*	*	*	*	*Xrep	*	*Xrep	*	*	*	*	*	*	*	*	*	*	*	*	*	*	*
=6	=6	=6	=6	=6	=6	=6	=6	=6	=6	=6	=6	=6	=6	=6	=6	=6	=6	=6	=6	=6	=6	=6	=6
4r	f	4r	.	4r	.	8D\L	.	8d\L	.	8f#L 8A/	.	8ryy	.	4r	.	4r	.	4r	.	4r	.	4r	.
.	.	.	.	.	.	8r	.	8r	.	8r	.	8r	.	.	.	.	.	.	.	.	.	.	.
8r	.	8r	.	8r	.	8D\J	.	8d\J	.	8f#J 8A/	.	8ryy	.	8r	.	8r	.	8r	.	8r	.	8r	.
.	.	.	.	.	.	.	.	.	.	.	.	.	.	.	.	.	.	.	.	.	.	16qqa/LL	.
.	.	.	.	.	.	.	.	.	.	.	.	.	.	.	.	.	.	.	.	.	.	16qqdd/	.
.	.	.	.	.	.	.	.	.	.	.	.	.	.	.	.	.	.	.	.	.	.	16qqff#/JJ	.
!	!	!	!LO:DY:rj:a	!	!	!	!LO:DY:rj	!	!LO:DY:rj	!	!	!	!LO:DY:rj	!	!	!	!	!	!LO:DY:rj	!	!LO:DY:rj	!	!
8Ra/	.	8Ree\	f	8D\	.	8D\	sf	8d\L	sf	8dd 8f# 8A\	.	8ff# 8a 8d\	sf	8D\	.	8dd 8a\	.	8f# 8d\	f	[>4.a/	f	[4.aa\	.
8r	.	8r	.	8r	.	8r	.	8r	.	8r	.	8r	.	8r	.	8r	.	8r	.	.	.	.	.
!	!	!	!	!LO:TX:t=P:problem=partie inst. perkusyjnych zapisane oddzielnie, inne LB	!	!	!LO:DY:rj	!	!LO:DY:rj	!	!LO:DY:rj	!	!	!	!	!	!	!	!	!	!	!	!
8r	.	8r	.	8r	.	8D\	p	8d\J	p	8f# 8A/	p	8r	.	8r	.	8r	.	8r	.	.	.	.	.
!LO:LB:g=original	!	!LO:LB:g=original	!	!LO:LB:g=original	!	!	!	!	!	!	!	!	!	!	!	!	!	!	!	!	!	!	!
=7	=7	=7	=7	=7	=7	=7	=7	=7	=7	=7	=7	=7	=7	=7	=7	=7	=7	=7	=7	=7	=7	=7	=7
!LO:TX:a:t=3.	!	!LO:TX:a:t=3.	!	!LO:TX:a:t=3.	!	!	!	!	!	!	!	!	!	!	!	!	!	!	!	!	!LO:DY:rj	!	!
2.r	.	2.r	.	2.r	.	8D\L	.	8d\L	.	8f#L 8A/	.	2.r	.	2.r	.	2.r	.	2.r	.	8.a/L]	p	8.aa\L]	.
.	.	.	.	.	.	8r	.	8r	.	8r	.	.	.	.	.	.	.	.	.	.	.	.	.
.	.	.	.	.	.	.	.	.	.	.	.	.	.	.	.	.	.	.	.	16g#X/K|	.	16gg#X\K|	.
!	!	!	!	!	!	!	!	!	!	!LO:N:vis=16	!	!	!	!	!	!	!	!	!	!	!	!	!
.	.	.	.	.	.	8D\J	.	8d\J	.	8f#J 8A/	.	.	.	.	.	.	.	.	.	8a/J|	.	8aa\J|	.
*	*	*	*	*	*	*rep	*	*rep	*	*rep	*	*	*	*	*	*	*	*	*	*	*	*	*
!	!	!	!	!	!	!	!	!	!	!	!	!	!	!	!	!	!	!	!	!LO:SIC:v:s=8ff#	!	!	!
.	.	.	.	.	.	8D\L	.	8d\L	.	8f#L 8A/	.	.	.	.	.	.	.	.	.	8ff\L	.	8fff#\L|	.
.	.	.	.	.	.	8r	.	8r	.	8r	.	.	.	.	.	.	.	.	.	8r	.	8r	.
!	!	!	!	!	!	!	!	!	!	!LO:N:vis=16	!	!	!	!	!	!	!	!	!	!	!	!	!
.	.	.	.	.	.	8D\J	.	8d\J	.	8f#J 8A/	.	.	.	.	.	.	.	.	.	8a\J	.	8aa\J|	.
*	*	*	*	*	*	*Xrep	*	*Xrep	*	*Xrep	*	*	*	*	*	*	*	*	*	*	*	*	*
=8	=8	=8	=8	=8	=8	=8	=8	=8	=8	=8	=8	=8	=8	=8	=8	=8	=8	=8	=8	=8	=8	=8	=8
*	*	*	*	*	*	*rep	*	*	*	*	*	*	*	*	*	*	*	*	*	*	*	*	*
2.r	.	2.r	.	2.r	.	8D\L	.	8c#\L	.	8gL 8A/	.	2.r	.	2.r	.	2.r	.	2.r	.	8gn\L	.	8ggn\L|	.
.	.	.	.	.	.	8r	.	8r	.	8r	.	.	.	.	.	.	.	.	.	8r	.	8r	.
!	!	!	!	!	!	!	!	!	!	!	!	!	!	!	!	!	!	!	!	!LO:SIC:v:s=8ff#	!	!	!
.	.	.	.	.	.	8D\J	.	8c#\J	.	8gJ 8A/	.	.	.	.	.	.	.	.	.	8ff\J	.	8fff#\J|	.
*	*	*	*	*	*	*	*	*rep	*	*rep	*	*	*	*	*	*	*	*	*	*	*	*	*
.	.	.	.	.	.	8D\L	.	8c#\L	.	8gL 8A/	.	.	.	.	.	.	.	.	.	8ee\L	.	8eee\L|	.
.	.	.	.	.	.	8r	.	8r	.	8r	.	.	.	.	.	.	.	.	.	8r	.	8r	.
.	.	.	.	.	.	8D\J	.	8c#\J	.	8gJ 8A/	.	.	.	.	.	.	.	.	.	8g\J	.	8gg\J|	.
*	*	*	*	*	*	*Xrep	*	*Xrep	*	*Xrep	*	*	*	*	*	*	*	*	*	*	*	*	*
!!LO:LB:g=original
=9	=9	=9	=9	=9	=9	=9	=9	=9	=9	=9	=9	=9	=9	=9	=9	=9	=9	=9	=9	=9	=9	=9	=9
2.r	.	2.r	.	2.r	.	8D\L	.	8c#\L	.	8gL 8A/	.	2.r	.	2.r	.	2.r	.	2.r	.	8.e/L	.	8.ee\L	.
.	.	.	.	.	.	8r	.	8r	.	8r	.	.	.	.	.	.	.	.	.	.	.	.	.
.	.	.	.	.	.	.	.	.	.	.	.	.	.	.	.	.	.	.	.	16g/K	.	16gg\K	.
.	.	.	.	.	.	8D\J	.	8c#\J	.	8gJ 8A/	.	.	.	.	.	.	.	.	.	8a/J	.	8aa\J	.
*	*	*	*	*	*	*rep	*	*rep	*	*rep	*	*	*	*	*	*	*	*	*	*	*	*	*
!	!	!	!	!	!	!	!	!	!	!	!	!	!	!	!	!	!	!	!	!LO:SIC:v:s=4bn	!	!	!
.	.	.	.	.	.	8D\L	.	8c#\L	.	8gL 8A/	.	.	.	.	.	.	.	.	.	4b-/	.	4bb\	.
.	.	.	.	.	.	8r	.	8r	.	8r	.	.	.	.	.	.	.	.	.	.	.	.	.
.	.	.	.	.	.	8D\J	.	8c#\J	.	8gJ 8A/	.	.	.	.	.	.	.	.	.	8a/	.	8aa\	.
*	*	*	*	*	*	*Xrep	*	*Xrep	*	*Xrep	*	*	*	*	*	*	*	*	*	*	*	*	*
=10	=10	=10	=10	=10	=10	=10	=10	=10	=10	=10	=10	=10	=10	=10	=10	=10	=10	=10	=10	=10	=10	=10	=10
!	!	!	!	!	!	!	!	!	!	!	!	!	!	!	!	!	!	!	!	!LO:SIC:v:s=8f#	!	!	!
4r	.	4r	.	4r	.	8D\L	.	8d\L	.	8f#L 8A/	.	4r	.	4r	.	4r	.	4r	.	8f/L	.	8ff#\L	.
.	.	.	.	.	.	8r	.	8r	.	8r	.	.	.	.	.	.	.	.	.	8r	.	8r	.
8r	.	8r	.	8r	.	8D\J	.	8d\J	.	8f#J 8A/	.	8r	.	8r	.	8r	.	8r	.	8d/J	.	8dd\J	.
.	.	.	.	.	.	.	.	.	.	.	.	.	.	.	.	.	.	.	.	.	.	16qqa/LL	.
.	.	.	.	.	.	.	.	.	.	.	.	.	.	.	.	.	.	.	.	.	.	16qqdd/	.
.	.	.	.	.	.	.	.	.	.	.	.	.	.	.	.	.	.	.	.	.	.	16qqff#/JJ	.
!	!	!	!LO:DY:rj	!	!LO:DY:rj	!	!LO:DY:rj	!	!LO:DY:rj	!	!LO:DY:rj	!	!LO:DY:rj	!	!LO:DY:rj	!	!LO:DY:rj	!	!LO:DY:rj	!	!	!	!
4Ra/	.	4Ree\	f	4D\	f	8D\L	f	8aL 8d\	f	8ddL 8f# 8A/	f	8ff# 8a 8d\	f	8D\	f	8dd 8a\	f	8f# 8d\	f	[4.a/	.	[4.aa^<\	sf
.	.	.	.	.	.	8r	p	8r	.	8r	.	8r	.	8r	.	8r	.	8r	.	.	.	.	.
!	!	!	!	!	!	!	!	!	!LO:DY:rj	!	!LO:DY:rj	!	!	!	!	!	!	!	!	!	!	!	!
8r	.	8r	.	8r	.	8D\J	.	8d\J	p	8f#J 8A/	p	8r	.	8r	.	8r	.	8r	.	.	.	.	.
=11	=11	=11	=11	=11	=11	=11	=11	=11	=11	=11	=11	=11	=11	=11	=11	=11	=11	=11	=11	=11	=11	=11	=11
!LO:TX:a:t=4.	!	!LO:TX:a:t=4.	!	!LO:TX:a:t=4.	!	!	!	!	!	!	!	!	!	!	!	!	!	!	!	!	!	!	!
2.r	.	2.r	.	2.r	.	8D\L	.	8d\L	.	8f#L 8A/	.	2.r	.	2.ryy	.	2.ryy	.	2.r	.	8.a/L]	.	8.aa\L]	.
.	.	.	.	.	.	8r	.	8r	.	8r	.	.	.	.	.	.	.	.	.	.	.	.	.
.	.	.	.	.	.	.	.	.	.	.	.	.	.	.	.	.	.	.	.	16g#X/K	.	16gg#X\K	.
.	.	.	.	.	.	8D\J	.	8d\J	.	8f#J 8A/	.	.	.	.	.	.	.	.	.	8a/J	.	8aa\J	.
*	*	*	*	*	*	*rep	*	*rep	*	*rep	*	*	*	*	*	*	*	*	*	*	*	*	*
!	!	!	!	!	!	!	!	!	!	!	!	!	!	!	!	!	!	!	!	!LO:SIC:v:s=8ff#	!	!	!
.	.	.	.	.	.	8D\L	.	8d\L	.	8f#L 8A/	.	.	.	.	.	.	.	.	.	8ff\L	.	8fff#\L	.
.	.	.	.	.	.	8r	.	8r	.	8r	.	.	.	.	.	.	.	.	.	8r	.	8r	.
.	.	.	.	.	.	8D\J	.	8d\J	.	8f#J 8A/	.	.	.	.	.	.	.	.	.	8a\J	.	8aa\J	.
*	*	*	*	*	*	*Xrep	*	*Xrep	*	*Xrep	*	*	*	*	*	*	*	*	*	*	*	*	*
=12	=12	=12	=12	=12	=12	=12	=12	=12	=12	=12	=12	=12	=12	=12	=12	=12	=12	=12	=12	=12	=12	=12	=12
2.r	.	2.r	.	2.r	.	8D\L	.	8c#\L	.	8gL 8A/	.	2.r	.	2.ryy	.	2.ryy	.	2.r	.	8gn\L	.	8ggn\L	.
.	.	.	.	.	.	8r	.	8r	.	8r	.	.	.	.	.	.	.	.	.	8r	.	8r	.
!	!	!	!	!	!	!	!	!	!	!	!	!	!	!	!	!	!	!	!	!LO:SIC:v:s=8ff#	!	!	!
.	.	.	.	.	.	8D\J	.	8c#\J	.	8gJ 8A/	.	.	.	.	.	.	.	.	.	8ff\J	.	8fff#\J	.
*	*	*	*	*	*	*rep	*	*rep	*	*rep	*	*	*	*	*	*	*	*	*	*	*	*	*
.	.	.	.	.	.	8D\L	.	8c#\L	.	8gL 8A/	.	.	.	.	.	.	.	.	.	8ee\L	.	8eee\L	.
.	.	.	.	.	.	8r	.	8r	.	8r	.	.	.	.	.	.	.	.	.	8r	.	8r	.
.	.	.	.	.	.	8D\J	.	8c#\J	.	8gJ 8A/	.	.	.	.	.	.	.	.	.	8g\J	.	8gg\J	.
*	*	*	*	*	*	*Xrep	*	*Xrep	*	*Xrep	*	*	*	*	*	*	*	*	*	*	*	*	*
=13	=13	=13	=13	=13	=13	=13	=13	=13	=13	=13	=13	=13	=13	=13	=13	=13	=13	=13	=13	=13	=13	=13	=13
*	*	*	*	*	*	*rep	*	*rep	*	*rep	*	*	*	*	*	*	*	*	*	*	*	*	*
!	!	!	!	!	!	!	!	!	!	!	!	!	!	!	!	!	!	!	!	!	!	!LO:N:vis=8.	!
2.r	.	2.r	.	2.r	.	8D\L	.	8c#\L	.	8gL 8A/	.	2.r	.	2.ryy	.	2.ryy	.	2.r	.	8e/L	.	8ee\L	.
.	.	.	.	.	.	8r	.	8r	.	8r	.	.	.	.	.	.	.	.	.	16r	.	16r	.
.	.	.	.	.	.	.	.	.	.	.	.	.	.	.	.	.	.	.	.	16g/K	.	16gg\K	.
.	.	.	.	.	.	8D\J	.	8c#\J	.	8gJ 8A/	.	.	.	.	.	.	.	.	.	8a/J	.	8aa\J	.
!	!	!	!	!	!	!	!	!	!	!	!	!	!	!	!	!	!	!	!	!LO:SIC:v:s=4bn	!	!	!
.	.	.	.	.	.	8D\L	.	8c#\L	.	8gL 8A/	.	.	.	.	.	.	.	.	.	4b-/	.	4bb\	.
.	.	.	.	.	.	8r	.	8r	.	8r	.	.	.	.	.	.	.	.	.	.	.	.	.
.	.	.	.	.	.	8D\J	.	8c#\J	.	8gJ 8A/	.	.	.	.	.	.	.	.	.	8a/	.	8aa\	.
*	*	*	*	*	*	*Xrep	*	*Xrep	*	*Xrep	*	*	*	*	*	*	*	*	*	*	*	*	*
!!LO:PB:g=original
=14	=14	=14	=14	=14	=14	=14	=14	=14	=14	=14	=14	=14	=14	=14	=14	=14	=14	=14	=14	=14	=14	=14	=14
2.r	.	2.r	.	2.r	.	8D\L	.	8d\L	.	8f#L 8A/	.	4r	.	2.r	.	4r	.	2.r	.	4.d/	.	[4.dd\	.
.	.	.	.	.	.	8r	.	8r	.	8r	.	.	.	.	.	.	.	.	.	.	.	.	.
.	.	.	.	.	.	8D\J	.	8d\J	.	8f#J 8A/	.	8r	.	.	.	8r	.	.	.	.	.	.	.
.	.	.	.	.	.	8D\	.	8d\	.	8f# 8A/	.	4r	.	.	.	4r	.	.	.	8d/	.	8dd\]	.
.	.	.	.	.	.	8r	.	8r	.	8r	.	.	.	.	.	.	.	.	.	8r	.	8r	.
.	.	.	.	.	.	8r	.	8r	.	8r	.	8e/|	.	.	.	8e/	.	.	.	8r	.	8ee\	p
=15	=15	=15	=15	=15	=15	=15	=15	=15	=15	=15	=15	=15	=15	=15	=15	=15	=15	=15	=15	=15	=15	=15	=15
*	*	*	*	*	*	*	*	*	*	*	*	*	*	*	*	*	*	*^	*	*	*	*	*
.	.	.	.	.	.	.	.	.	.	.	.	(8qb/	.	.	.	(8qb/	.	.	.	.	.	.	(8qbb/	.
*	*	*	*	*	*	*	*	*tremolo	*	*tremolo	*	*	*	*	*	*	*	*2\right	*	*	*	*	*	*
!	!	!	!LO:DY:rj	!	!	!LO:TX:b:t=pizz	!	!	!	!	!LO:DY:rj	!	!	!	!	!	!	!	!	!LO:DY:rj	!LO:SIC:v:n=1:s=2.c#	!LO:DY:rj	!	!
2.r	.	8Ree\L	p	2.r	.	4A\	.	8A/L	.	8c#/L	p	8a/L)	.	2.r	.	8a/L)	.	[2.e/	2.e\	p	[2.c [2.A/	p	8aa\L)	.
.	.	8r	.	.	.	.	.	8A/	.	8c#/	.	8r	.	.	.	8r	.	.	.	.	.	.	8r	.
.	.	8Ree\J	.	.	.	8r	.	8A/	.	8c#/	.	8g#X'/J	.	.	.	8g#X/J|	.	.	.	.	.	.	8gg#X'\J	.
*	*	*rep	*	*	*	*	*	*	*	*	*	*	*	*	*	*	*	*	*	*	*	*	*	*
.	.	8Ree\L	.	.	.	4E\	.	8A/	.	8c#/	.	8a'/L	.	.	.	8a/L|	.	.	.	.	.	.	8aa'\L	.
.	.	8r	.	.	.	.	.	8A/	.	8c#/	.	8r	.	.	.	8r	.	.	.	.	.	.	8r	.
.	.	8Ree\J	.	.	.	8r	.	8A/J	.	8c#/J	.	8b'/J	.	.	.	8b/J|	.	.	.	.	.	.	8bb'\J	.
*	*	*Xrep	*	*	*	*	*	*	*	*	*	*	*	*	*	*	*	*	*	*	*	*	*	*
=16	=16	=16	=16	=16	=16	=16	=16	=16	=16	=16	=16	=16	=16	=16	=16	=16	=16	=16	=16	=16	=16	=16	=16	=16
*	*	*	*	*	*	*rep	*	*rep	*	*rep	*	*	*	*	*	*	*	*	*	*	*	*	*	*
!	!	!	!	!	!	!	!	!	!	!	!	!	!	!	!	!	!	!	!	!	!LO:SIC:v:n=1:s=2.c#	!	!	!
2.r	.	8Ree\L	.	2.r	.	4A\	.	8A/L	.	8c#/L	.	8a\L|	.	2.r	.	8a\L	.	2.e/_	2.e\	.	2.c_ 2.A/_	.	8aa'\L	.
.	.	8r	.	.	.	.	.	8A/	.	8c#/	.	8r	.	.	.	8r	.	.	.	.	.	.	8r	.
!	!	!	!	!	!	!	!	!	!	!	!	!	!	!	!	!LO:SIC:v:s=8cc#	!	!	!	!	!	!	!	!
.	.	8Ree\J	.	.	.	8r	.	8A/	.	8c#/	.	8cc#\J|	.	.	.	8cc\J	.	.	.	.	.	.	8ccc#'\J	.
.	.	4.Ree\	.	.	.	4E\	.	8A/	.	8c#/	.	[4.ee\|	.	.	.	[4.ee\	.	.	.	.	.	.	[4.eee'\	.
.	.	.	.	.	.	.	.	8A/	.	8c#/	.	.	.	.	.	.	.	.	.	.	.	.	.	.
.	.	.	.	.	.	8r	.	8A/J	.	8c#/J	.	.	.	.	.	.	.	.	.	.	.	.	.	.
*	*	*	*	*	*	*Xrep	*	*Xrep	*	*Xrep	*	*	*	*	*	*	*	*	*	*	*	*	*	*
=17	=17	=17	=17	=17	=17	=17	=17	=17	=17	=17	=17	=17	=17	=17	=17	=17	=17	=17	=17	=17	=17	=17	=17	=17
*	*	*	*	*	*	*rep	*	*rep	*	*rep	*	*	*	*	*	*	*	*	*	*	*	*	*	*
!LO:TX:a:t=2.	!	!LO:TX:a:t=2.	!	!LO:TX:a:t=2.	!	!	!	!	!	!	!	!	!	!	!	!	!	!	!	!	!LO:SIC:v:n=1:s=2.c#	!	!	!
2.r	.	2.r	.	2.r	.	4A\	.	8A/L	.	8c#/L	.	8ee\L]	.	2.r	.	8ee\L]	.	2.e/_	2.e\	.	(2.e 2.c] (2.A/]	.	8eee\L]	.
.	.	.	.	.	.	.	.	8A/	.	8c#/	.	8dd\	.	.	.	8dd\	.	.	.	.	.	.	8ddd\	.
!	!	!	!	!	!	!	!	!	!	!	!	!	!	!	!	!LO:SIC:v:s=8cc#	!	!	!	!	!	!	!	!
.	.	.	.	.	.	8r	.	8A/	.	8c#/	.	8cc#\J	.	.	.	8cc\J	.	.	.	.	.	.	8ccc#\J	.
.	.	.	.	.	.	4E\	.	8A/	.	8c#/	.	8b\L	.	.	.	8b\L	.	.	.	.	.	.	8bb\L	.
!	!	!	!	!	!	!	!	!	!	!	!	!	!	!	!	!LO:SIC:v:s=8cc#	!	!	!	!	!	!	!	!
.	.	.	.	.	.	.	.	8A/	.	8c#/	.	8cc#\	.	.	.	8cc\	.	.	.	.	.	.	8ccc#\	.
.	.	.	.	.	.	8r	.	8A/J	.	8c#/J	.	8a\J	.	.	.	8a\J	.	.	.	.	.	.	8aa\J	.
*	*	*	*	*	*	*Xrep	*	*Xrep	*	*Xrep	*	*	*	*	*	*	*	*	*	*	*	*	*	*
=18	=18	=18	=18	=18	=18	=18	=18	=18	=18	=18	=18	=18	=18	=18	=18	=18	=18	=18	=18	=18	=18	=18	=18	=18
!	!	!	!	!	!	!	!	!	!	!	!	!	!	!	!	!	!	!	!	!	!LO:SIC:v:n=2:s=2.Bn	!	!	!
2.r	.	2.r	.	2.r	.	4G#X\	.	8B/L	.	8B/L	.	8b\L	.	2.r	.	8b\L	.	2.e/]	2.e\	.	2.d 2.B-/))	.	8bb\L	.
.	.	.	.	.	.	.	.	8B/	.	8B/	.	8r	.	.	.	8r	.	.	.	.	.	.	8r	.
!	!	!	!	!	!	!	!	!	!	!	!	!	!	!	!	!LO:SIC:v:s=8cc#	!	!	!	!	!	!	!	!
.	.	.	.	.	.	8r	.	8B/	.	8B/	.	8cc#\J	.	.	.	8cc\J	.	.	.	.	.	.	8ccc#\J	.
.	.	.	.	.	.	4E\	.	8B/	.	8B/	.	8b\	.	.	.	8b\	.	.	.	.	.	.	8bb\	.
.	.	.	.	.	.	.	.	8B/	.	8B/	.	8r	.	.	.	8r	.	.	.	.	.	.	8r	.
.	.	.	.	.	.	8r	.	8B/J	.	8B/J	.	8e/	.	.	.	8e/	.	.	.	.	.	.	8ee\	.
!!LO:LB:g=original
=19	=19	=19	=19	=19	=19	=19	=19	=19	=19	=19	=19	=19	=19	=19	=19	=19	=19	=19	=19	=19	=19	=19	=19	=19
.	.	.	.	.	.	.	.	.	.	.	.	(8qb/	.	.	.	(8qb/	.	.	.	.	.	.	8qbb/	.
!	!	!	!	!	!	!	!	!	!	!	!	!	!	!	!	!	!	!	!	!	!LO:SIC:v:n=1:s=2.c#	!	!	!
2.r	.	8Ree\L	.	2.r	.	4A\	.	8A/L	.	8c#/L	.	8a/L)	.	2.r	.	8a/L)	.	[2.e/	2.e\	.	[2.c [2.A/	.	8aa\L	.
.	.	8r	.	.	.	.	.	8A/	.	8c#/	.	8r	.	.	.	8r	.	.	.	.	.	.	8r	.
.	.	8Ree\J	.	.	.	8r	.	8A/	.	8c#/	.	8g#X'/J	.	.	.	8g#X/J	.	.	.	.	.	.	8gg#X\J	.
.	.	8Ree\L	.	.	.	4E\	.	8A/	.	8c#/	.	8a'/L	.	.	.	8a/L	.	.	.	.	.	.	8aa\L	.
.	.	8r	.	.	.	.	.	8A/	.	8c#/	.	8r	.	.	.	8r	.	.	.	.	.	.	8r	.
.	.	8Ree\J	.	.	.	8r	.	8A/J	.	8c#/J	.	8b'/J	.	.	.	8b/J	.	.	.	.	.	.	8bb\J	.
=20	=20	=20	=20	=20	=20	=20	=20	=20	=20	=20	=20	=20	=20	=20	=20	=20	=20	=20	=20	=20	=20	=20	=20	=20
*	*	*	*	*	*	*rep	*	*rep	*	*rep	*	*	*	*	*	*	*	*	*	*	*	*	*	*
!	!	!	!	!	!	!	!	!	!	!	!	!	!	!	!	!	!	!	!	!	!LO:SIC:v:n=1:s=2.c#	!	!	!
2.r	.	8Ree\L	.	2.r	.	4A\	.	8A/L	.	8c#/L	.	8a'\L	.	2.r	.	8a/L	.	2.e/_	[2.e\	.	(2.c] (2.A/]	.	8aa\L	.
.	.	8r	.	.	.	.	.	8A/	.	8c#/	.	8r	.	.	.	8r	.	.	.	.	.	.	8r	.
!	!	!	!	!	!	!	!	!	!	!	!	!	!	!	!	!LO:SIC:v:s=8cc#	!	!	!	!	!	!	!	!
.	.	8Ree\J	.	.	.	8r	.	8A/	.	8c#/	.	8cc#'\J	.	.	.	8cc/J	.	.	.	.	.	.	8ccc#\J	.
.	.	4.Ree\	.	.	.	4E\	.	8A/	.	8c#/	.	[4.ee'\	.	.	.	[4.ee\	.	.	.	.	.	.	[4.eee\	.
.	.	.	.	.	.	.	.	8A/	.	8c#/	.	.	.	.	.	.	.	.	.	.	.	.	.	.
.	.	.	.	.	.	8r	.	8A/J	.	8c#/J	.	.	.	.	.	.	.	.	.	.	.	.	.	.
*	*	*	*	*	*	*Xrep	*	*Xrep	*	*Xrep	*	*	*	*	*	*	*	*	*	*	*	*	*	*
=21	=21	=21	=21	=21	=21	=21	=21	=21	=21	=21	=21	=21	=21	=21	=21	=21	=21	=21	=21	=21	=21	=21	=21	=21
!	!	!	!	!LO:TX:a:t=1.	!	!	!	!	!	!	!	!	!	!	!	!	!	!	!	!	!LO:SIC:v:n=2:s=2.Bn	!	!	!
2.r	.	2.r	.	2.r	.	4G#X\	.	8B/L	.	8B/L	.	8ee\L]	.	2.r	.	8ee\L]	.	2.e/]	2.e\]	.	2.d 2.B-/))	.	8eee\L]	.
.	.	.	.	.	.	.	.	8B/	.	8B/	.	8dd\	.	.	.	8dd\	.	.	.	.	.	.	8ddd\	.
!	!	!	!	!	!	!	!	!	!	!	!	!	!	!	!	!LO:SIC:v:s=8cc#	!	!	!	!	!	!	!	!
.	.	.	.	.	.	8r	.	8B/	.	8B/	.	8cc#\J	.	.	.	8cc\J	.	.	.	.	.	.	8ccc#\J	.
.	.	.	.	.	.	4E\	.	8B/	.	8B/	.	8dd\L	.	.	.	8dd\L	.	.	.	.	.	.	8ddd\L	.
.	.	.	.	.	.	.	.	8B/	.	8B/	.	8b\	.	.	.	8b\	.	.	.	.	.	.	8bb\	.
.	.	.	.	.	.	8r	.	8B/J	.	8B/J	.	8ee\J	.	.	.	8ee\J	.	.	.	.	.	.	8eee\J	.
=22	=22	=22	=22	=22	=22	=22	=22	=22	=22	=22	=22	=22	=22	=22	=22	=22	=22	=22	=22	=22	=22	=22	=22	=22
*	*	*	*	*	*	*	*	*	*	*	*	*	*	*	*	*	*	*	*	*	*^	*	*	*
!	!	!	!	!	!	!	!	!	!	!	!	!	!	!	!	!	!	!	!	!	!LO:SIC:v:n=1:s=4.c#	!	!	!	!
4r	.	4r	.	4r	.	8A\L	.	8A/L	.	8c#/L	.	[4.a/	.	4r	.	[4.a/	.	[4.e/	[4.e\	.	[4.c [<4.A/	4.ryy	.	[4.aa\	.
.	.	.	.	.	.	8E\	.	8A/	.	8c#/	.	.	.	.	.	.	.	.	.	.	.	.	.	.	.
2r	.	8r	.	8r	.	8C#\J	.	8A/J	.	8c#/J	.	.	.	8r	.	.	.	.	.	.	.	.	.	.	.
*	*	*	*	*	*	*	*	*Xtremolo	*	*Xtremolo	*	*	*	*	*	*	*	*	*	*	*	*	*	*	*
!	!	!	!	!	!	!	!	!	!	!	!	!	!	!	!	!	!	!	!	!	!LO:SIC:v:n=1:s=8c#	!	!	!	!
.	.	4r	.	4r	.	8AA/	.	8A/	.	8c#/	.	8a/]	.	4r	.	8a/]	.	8e/]	8e\]	.	8c] 8A/]	8ryy	.	8aa\]	.
.	.	.	.	.	.	8r	.	8r	.	8r	.	8r	.	.	.	8r	.	8r	8ryy	.	8r	8ryy	.	8r	.
*	*	*	*	*	*	*	*	*	*	*	*	*	*	*	*	*^	*	*	*	*	*	*	*	*	*
!	!	!	!	!	!LO:DY:rj	!LO:TX:a:t=arco	!LO:DY:rj	!	!LO:DY:rj	!	!	!	!LO:DY:rj	!	!LO:DY:rj	!	!	!	!	!	!LO:DY:rj	!	!	!	!	!LO:DY:rj
.	.	8Ree\	.	8AA/	f	8A\	ff	8a\	f	8aa 8a\	.	8aa\	f	8AA/	f	8a/	8a\	.	8A/	8A\	f	8a/	8a\	.	8aa\	f
!LO:LB:g=original	!	!LO:LB:g=original	!	!LO:LB:g=original	!	!	!	!	!	!	!	!	!	!	!	!	!	!	!	!	!	!	!	!	!	!
=23	=23	=23	=23	=23	=23	=23	=23	=23	=23	=23	=23	=23	=23	=23	=23	=23	=23	=23	=23	=23	=23	=23	=23	=23	=23	=23
!	!LO:DY:rj:a	!	!	!	!	!	!	!	!	!	!	!	!	!	!	!	!	!	!	!	!	!	!	!	!	!
8Ra/	ff	8Ree\	.	8D/	.	8AA/	.	8a 8fn 8d\	.	8ffn 8dd\	.	8ddd\	.	8D/	.	8dd/	8dd\	.	8d/	8d\	.	8dd/	8dd\	.	8ddd\	.
8r	.	8r	.	8r	.	8r	.	8r	.	8r	.	8r	.	8r	.	8r	8ryy	.	8r	2ryy	.	8r	2ryy	.	8r	.
8r	.	8r	.	8r	.	8r	.	(32a\LLL	.	(32a/LLL	.	(32a/LLL	.	8r	.	8r	8ryy	.	8r	.	.	8r	.	.	8r	.
.	.	.	.	.	.	.	.	32g\	.	32g/	.	32g/	.	.	.	.	.	.	.	.	.	.	.	.	.	.
.	.	.	.	.	.	.	.	32f\	.	32fn/	.	32fn/	.	.	.	.	.	.	.	.	.	.	.	.	.	.
.	.	.	.	.	.	.	.	32e\JJ	.	32e/JJ	.	32e/JJJ	.	.	.	.	.	.	.	.	.	.	.	.	.	.
!	!	!	!	!	!	!	!	!	!	!	!	!	!	!	!	!	!	!	!	!	!	!	!	!LO:DY:rj	!	!LO:DY:rj
4r	.	4r	.	4r	.	4r	.	8d\J)	.	8d/J)	.	8d/)	.	4r	.	4r	4ryy	.	4r	.	.	8d'/L	.	p	8dd'\L	p
.	.	.	.	.	.	.	.	8r	.	8r	.	8r	.	.	.	.	.	.	.	.	.	8f'/	.	.	8ffn'\	.
8r	.	8r	.	8r	.	8r	.	8r	.	8r	.	8r	.	8r	.	8r	8ryy	.	8r	8ryy	.	8b-X'/J	8ryy	.	8bb-X'\J	.
*	*	*	*	*	*	*	*	*	*	*	*	*	*	*	*	*	*	*	*	*	*	*v	*v	*	*	*
!!LO:PB:g=original
=24	=24	=24	=24	=24	=24	=24	=24	=24	=24	=24	=24	=24	=24	=24	=24	=24	=24	=24	=24	=24	=24	=24	=24	=24	=24
.	.	.	.	.	.	.	.	.	.	.	.	.	.	.	.	.	.	.	.	.	.	8qb-X/	.	8qbb-X/	.
!	!	!	!	!	!	!	!	!	!	!	!	!	!	!	!	!LO:SIC:v:s=8c#	!	!	!	!	!LO:DY:rj	!	!	!	!
2.r	.	4r	.	4r	.	4r	.	4r	.	4r	.	4r	.	4r	.	8c/L	4.ryy	.	8eL 8A\	4.ryy	p	8a/L	.	8aa\L	.
.	.	.	.	.	.	.	.	.	.	.	.	.	.	.	.	8r	.	.	8r	.	.	8r	.	8r	.
!	!	!	!	!	!	!	!	!	!	!	!	!	!	!	!	!LO:SIC:v:s=8c#	!	!	!	!	!	!	!	!	!
.	.	8r	.	8r	.	8r	.	8r	.	8r	.	8r	.	8r	.	8c/J	.	.	8eJ 8A\	.	.	8g#X/J	.	8gg#X\J	.
!	!	!	!	!	!	!	!	!	!	!	!	!	!	!	!	!LO:SIC:v:s=8c#	!	!	!	!	!	!	!	!	!
.	.	4r	.	4r	.	4r	.	4r	.	4r	.	4r	.	4r	.	8c/	4ryy	.	8e 8A\	4ryy	.	8a/	.	8aa\	.
.	.	.	.	.	.	.	.	.	.	.	.	.	.	.	.	8r	.	.	8r	.	.	8r	.	8r	f
!	!	!	!	!	!LO:DY:rj	!	!LO:DY:rj	!	!	!	!LO:DY:rj	!	!LO:DY:rj	!	!LO:DY:rj	!	!	!LO:DY:rj	!	!	!	!	!	!	!
.	.	8Ree\	.	8AA/	f	8A\	f	8a\	.	8aa 8a\	f	8aa'\	f	8AA/	f	8a/	8a\	f	8A/	8A\	.	8a/	.	8aa\	.
*	*	*	*	*	*	*	*	*	*	*	*	*	*	*	*	*v	*v	*	*	*	*	*	*	*	*
=25	=25	=25	=25	=25	=25	=25	=25	=25	=25	=25	=25	=25	=25	=25	=25	=25	=25	=25	=25	=25	=25	=25	=25	=25
!	!LO:DY:rj	!	!	!	!	!	!	!	!	!	!	!	!	!	!	!LO:SIC:v:n=2:s=8f#	!	!	!	!	!	!	!	!
8Ra/	ff	8Ree\	.	8D/	.	8AA/	.	8a 8fn 8d\	.	8ffn 8dd\	.	8ddd'\	.	8D\	.	8dd 8fn/	.	8d/	8d\	.	8dd 8fn/	.	8ddd\	.
8r	.	8r	.	8r	.	8r	.	8r	.	8r	.	8r	.	8r	.	8r	.	8r	4ryy	.	8r	.	8r	.
8r	.	8r	.	8r	.	8r	.	32a\LLL	.	(32a/LLL	.	(32a/LLL	.	8r	.	8r	.	8r	.	.	8r	.	8r	.
.	.	.	.	.	.	.	.	32g\	.	32g/	.	32g/	.	.	.	.	.	.	.	.	.	.	.	.
.	.	.	.	.	.	.	.	32f\	.	32fn/	.	32fn/	.	.	.	.	.	.	.	.	.	.	.	.
.	.	.	.	.	.	.	.	32e\JJJ	.	32e/JJJ	.	32e/JJJ	.	.	.	.	.	.	.	.	.	.	.	.
!	!	!	!	!	!	!	!	!	!	!	!	!	!	!	!	!	!	!	!	!	!	!	!	!LO:DY:rj
4r	.	4r	.	4r	.	4r	.	8d\	.	8d/)	.	8d/)	.	4r	.	4r	.	4r	4ryy	.	8d'/L	.	8dd'\L	p
.	.	.	.	.	.	.	.	8r	.	8r	.	8r	.	.	.	.	.	.	.	.	8f'/	.	8ffn'\	.
8r	.	8r	.	8r	.	8r	.	8r	.	8r	.	8r	.	8r	.	8r	.	8r	8ryy	.	8b-X'/J	.	8bb-X'\J	.
=26	=26	=26	=26	=26	=26	=26	=26	=26	=26	=26	=26	=26	=26	=26	=26	=26	=26	=26	=26	=26	=26	=26	=26	=26
*	*	*	*	*	*	*	*	*	*	*	*	*	*	*	*	*^	*	*	*	*	*	*	*	*
!	!	!	!	!	!	!	!	!	!	!	!	!	!	!	!	!LO:SIC:v:s=4.c#	!	!LO:DY:rj	!	!	!	!	!	!	!
2.r	.	4r	.	4r	.	4r	.	4r	.	4r	.	4r	.	4r	.	[4.c/	4.ryy	p	4.e 4.A\	4.ryy	.	[4.a/	.	[4.aa\	.
.	.	8r	.	8r	.	8r	.	8r	.	8r	.	8r	.	8r	.	.	.	.	.	.	.	.	.	.	.
!	!	!	!	!	!	!	!	!	!	!	!	!	!	!	!	!LO:SIC:v:s=8c#	!	!	!	!	!	!	!	!	!
.	.	4r	.	4r	.	4r	.	4r	.	4r	.	4r	.	4r	.	8c/]	4ryy	.	8e 8A\	4ryy	.	8a/]	.	8aa\]	.
.	.	.	.	.	.	.	.	.	.	.	.	.	.	.	.	8r	.	.	8r	.	.	8r	.	8r	.
!	!	!	!	!	!	!	!LO:DY:rj:a	!	!	!	!	!	!	!	!	!	!	!LO:DY:rj	!	!	!	!	!	!	!LO:DY:rj
.	.	8Ree\	.	8AA/	.	8A\	f	8a\	.	8aa 8a\	.	8aa\	f	8AA/	.	8a/	8a\	f	8A/	8A\	.	8a/	.	8aa\	f
=27	=27	=27	=27	=27	=27	=27	=27	=27	=27	=27	=27	=27	=27	=27	=27	=27	=27	=27	=27	=27	=27	=27	=27	=27	=27
!	!LO:DY:rj	!	!	!	!	!	!	!	!	!	!	!	!	!	!	!	!	!	!	!	!	!	!	!	!
8Ra/	ff	8Ree\	.	8D/	.	8AA/	.	8a 8fn 8d\	.	8ffn 8dd\	.	8ddd\	.	8D/	.	8dd/	8dd\	.	8d/	8d\	.	8dd 8fn/	.	8ddd\	.
8r	.	8r	.	8r	.	8r	.	8r	.	8r	.	8r	.	8r	.	8r	4ryy	.	8r	4ryy	.	8r	.	8r	.
8r	.	8r	.	8r	.	8r	.	32a\LLL	.	(32a/LLL	.	(32a/LLL	.	8r	.	8r	.	.	8r	.	.	8r	.	8r	.
.	.	.	.	.	.	.	.	32g\	.	32g/	.	32g/	.	.	.	.	.	.	.	.	.	.	.	.	.
.	.	.	.	.	.	.	.	32f\	.	32fn/	.	32fn/	.	.	.	.	.	.	.	.	.	.	.	.	.
.	.	.	.	.	.	.	.	32e\JJ	.	32e/JJ	.	32e/JJJ	.	.	.	.	.	.	.	.	.	.	.	.	.
!	!	!	!	!	!	!	!	!	!	!	!	!	!	!	!	!	!	!	!	!	!	!	!	!	!LO:DY:rj
4r	.	4r	.	4r	.	4r	.	8dJ\	.	8d/J)	.	8d/)	.	4r	.	4r	4ryy	.	4r	4ryy	.	8d'/L	.	8dd'\L	p
.	.	.	.	.	.	.	.	8r	.	8r	.	8r	.	.	.	.	.	.	.	.	.	8f'/	.	8ffn'\	.
8r	.	8r	.	8r	.	8r	.	8r	.	8r	.	8r	.	8r	.	8r	8ryy	.	8r	8ryy	.	8b-X'/J	.	8bb-X'\J	.
*	*	*	*	*	*	*	*	*	*	*	*	*	*	*	*	*	*	*	*v	*v	*	*	*	*	*
=28	=28	=28	=28	=28	=28	=28	=28	=28	=28	=28	=28	=28	=28	=28	=28	=28	=28	=28	=28	=28	=28	=28	=28	=28
.	.	.	.	.	.	.	.	.	.	.	.	.	.	.	.	.	.	.	.	.	(8qb-X/	.	(8qbb-X/	.
!	!	!	!	!	!	!	!	!	!	!	!	!	!	!	!	!LO:SIC:v:s=8c#	!	!LO:DY:rj	!	!	!	!	!	!
2.r	.	4r	.	4r	.	4r	.	4r	.	4r	.	4r	.	4r	.	8c/L	2ryy	p	8eL 8A/	.	8a/L)	.	8aa\L)	.
.	.	.	.	.	.	.	.	.	.	.	.	.	.	.	.	8rg	.	.	8r	.	8r	.	8r	.
!	!	!	!	!	!	!	!	!	!	!	!	!	!	!	!	!LO:SIC:v:s=8c#	!	!	!	!	!	!	!	!
.	.	8r	.	8r	.	8r	.	8r	.	8r	.	8r	.	8r	.	8c/J	.	.	8eJ 8A/	.	8g#X'/J	.	8gg#X'\J	.
!	!	!	!	!	!	!	!	!	!	!	!	!	!	!	!	!LO:SIC:v:s=8c#	!	!	!	!	!	!	!	!
.	.	4r	.	4r	.	4r	.	4r	.	4r	.	4r	.	4r	.	8c/	.	.	8e 8A/	.	8a'/	.	8aa'\	.
.	.	.	.	.	.	.	.	.	.	.	.	.	.	.	.	8r	8ryy	.	8r	.	8r	.	8r	.
!	!	!	!	!	!	!	!	!	!LO:DY:rj	!	!	!	!LO:DY:rj	!	!	!	!	!LO:DY:rj	!	!	!	!	!	!LO:DY:rj
.	.	8Ree\	.	8AA/	.	8A\	.	8a\	f	8aa 8a\	.	8aa\	ff	8AA/	.	8a/	8a\	f	8A/	.	8a/	.	8aa\	f
*	*	*	*	*	*	*	*	*	*	*	*	*	*	*	*	*v	*v	*	*	*	*	*	*	*
!!LO:LB:g=original
=29	=29	=29	=29	=29	=29	=29	=29	=29	=29	=29	=29	=29	=29	=29	=29	=29	=29	=29	=29	=29	=29	=29	=29
*	*	*	*	*	*	*	*	*	*	*	*	*	*	*	*	*	*	*^	*	*	*	*	*
!	!LO:DY:rj:t=ffo	!	!	!	!	!	!	!	!	!	!	!	!	!	!	!	!	!	!	!	!	!	!	!
8Ra/	ff	8Ree\	.	8D/	.	8AA/	.	8a 8fn 8d\	.	8ffn 8dd\	.	8ddd\	.	8D\	.	8dd 8fn/	.	8d/	8d\	.	8dd 8fn/	.	8ddd\	.
8r	.	8r	.	8r	.	8r	.	8r	.	8r	.	8r	.	8r	.	8r	.	8r	2ryy	.	8r	.	8r	.
8r	.	8r	.	8r	.	8r	.	32a\LLL	.	(32a/LLL	.	(32a/LLL	.	8r	.	8r	.	8r	.	.	8r	.	8r	.
.	.	.	.	.	.	.	.	32g\	.	32g/	.	32g/	.	.	.	.	.	.	.	.	.	.	.	.
.	.	.	.	.	.	.	.	32fnX\	.	32fn/	.	32fn/	.	.	.	.	.	.	.	.	.	.	.	.
.	.	.	.	.	.	.	.	32e\JJ	.	32e/JJ	.	32e/JJ	.	.	.	.	.	.	.	.	.	.	.	.
4r	.	4r	.	4r	.	4r	.	8dJ\	.	8d/J)	.	8d/J)	.	4r	.	4r	.	4r	.	.	8d/L	.	8dd'\L	.
.	.	.	.	.	.	.	.	8r	.	8r	.	8r	.	.	.	.	.	.	.	.	8f/	.	8ffn'\	.
8r	.	8r	.	8r	.	8r	.	8r	.	8r	.	8r	.	8r	.	8r	.	8r	8ryy	.	8b-X/J	.	8bb-X'\J	.
*	*	*	*	*	*	*	*	*	*	*	*	*	*	*	*	*	*	*v	*v	*	*	*	*	*
=30	=30	=30	=30	=30	=30	=30	=30	=30	=30	=30	=30	=30	=30	=30	=30	=30	=30	=30	=30	=30	=30	=30	=30
*	*	*	*	*	*	*	*	*	*	*	*	*	*	*	*	*^	*	*	*	*	*	*	*
!	!	!	!	!	!	!	!	!	!	!	!	!	!	!	!	!LO:SIC:v:s=4c#	!	!	!	!	!	!	!	!
4r	.	4r	.	4r	.	4r	.	4r	.	4r	.	4r	.	4r	.	4c/	4.ryy	.	4e 4A\	.	4a/	.	4aa\	.
8r	.	8r	.	8r	.	8r	.	8r	.	8r	.	8r	.	8r	.	8r	.	.	8g 8e\	.	8r	.	8r	.
.	.	.	.	.	.	.	.	.	.	.	.	.	.	.	.	.	.	.	.	.	.	.	(16qqa/LL	.
.	.	.	.	.	.	.	.	.	.	.	.	.	.	.	.	.	.	.	.	.	.	.	16qqdd/	.
.	.	.	.	.	.	.	.	.	.	.	.	.	.	.	.	.	.	.	.	.	.	.	16qqff#/JJ	.
!	!LO:DY:rj	!	!	!	!LO:DY:rj	!	!LO:DY:rj	!	!LO:DY:rj	!	!LO:DY:rj	!	!LO:DY:rj	!	!LO:DY:rj	!	!	!	!	!LO:DY:rj	!	!	!	!LO:DY:rj
4Ra/	f	4Ree\	.	4D/	sf	8D\L	f	8aL 8d\	f	8dd 8f# 8A\	f	8ff# 8a 8d\	f	8D\	f	8d/	8d\	.	8f#L 8d\	f	[4.a/	.	[4.aa\)	sf
.	.	.	.	.	.	8r	.	8r	.	8r	.	8r	.	8r	.	8r	4ryy	.	8r	.	.	.	.	.
!	!	!	!	!	!	!	!LO:DY:rj	!	!LO:DY:rj	!	!LO:DY:rj	!	!	!	!	!	!	!	!	!	!	!	!	!
8r	.	8r	.	8r	.	8D\J	p	8d\J	p	8f# 8A/	p	8r	.	8r	.	8r	.	.	8dJ 8F#\	.	.	.	.	.
*	*	*	*	*	*	*	*	*	*	*	*	*	*	*	*	*v	*v	*	*	*	*	*	*	*
!LO:LB:g=original	!	!LO:LB:g=original	!	!LO:LB:g=original	!	!	!	!	!	!	!	!	!	!	!	!	!	!	!	!	!	!	!
=31	=31	=31	=31	=31	=31	=31	=31	=31	=31	=31	=31	=31	=31	=31	=31	=31	=31	=31	=31	=31	=31	=31	=31
!LO:TX:a:t=3	!	!LO:TX:a:t=3.	!	!LO:TX:a:t=3.	!	!	!	!	!	!	!	!	!	!	!	!	!	!	!	!	!	!	!
2.r	.	2.r	.	2.r	.	8D\L	.	8d\L	.	8f#L 8A/	.	2.r	.	2.r	.	2.r	.	2.r	.	8.a/L]	.	8.aa\L]	.
.	.	.	.	.	.	8r	.	8r	.	8r	.	.	.	.	.	.	.	.	.	.	.	.	.
!	!	!	!	!	!	!	!	!	!	!	!	!	!	!	!	!	!	!	!	!	!	!	!LO:DY:rj
.	.	.	.	.	.	.	.	.	.	.	.	.	.	.	.	.	.	.	.	16g#X/K	.	16gg#X\K	p
.	.	.	.	.	.	8D\J	.	8d\J	.	8f#J 8A/	.	.	.	.	.	.	.	.	.	8a/J	.	8aa\J	.
*	*	*	*	*	*	*rep	*	*rep	*	*rep	*	*	*	*	*	*	*	*	*	*	*	*	*
!	!	!	!	!	!	!	!	!	!	!	!	!	!	!	!	!	!	!	!	!LO:SIC:v:s=8ff#	!	!	!
!	!	!	!	!	!	!	!	!	!	!	!	!	!	!	!	!	!	!	!	!LO:TX:t=P:problem=mixed beam	!	!	!
.	.	.	.	.	.	8D\L	.	8d\L	.	8f#L 8A/	.	.	.	.	.	.	.	.	.	8ff\L	.	8fff#\L	.
.	.	.	.	.	.	8r	.	8r	.	8r	.	.	.	.	.	.	.	.	.	8r	.	8r	.
.	.	.	.	.	.	8D\J	.	8d\J	.	8f#J 8A/	.	.	.	.	.	.	.	.	.	8a/J	.	8aa\J	.
*	*	*	*	*	*	*Xrep	*	*Xrep	*	*Xrep	*	*	*	*	*	*	*	*	*	*	*	*	*
=32	=32	=32	=32	=32	=32	=32	=32	=32	=32	=32	=32	=32	=32	=32	=32	=32	=32	=32	=32	=32	=32	=32	=32
*	*	*	*	*	*	*rep	*	*	*	*	*	*	*	*	*	*	*	*	*	*	*	*	*
2.r	.	2.r	.	2.r	.	8D\L	.	8c#\L	.	8gL 8A/	.	2.r	.	2.r	.	2.r	.	2.r	.	8gn\L	.	8ggn\L	.
.	.	.	.	.	.	8r	.	8r	.	8r	.	.	.	.	.	.	.	.	.	8r	.	8r	.
!	!	!	!	!	!	!	!	!	!	!	!	!	!	!	!	!	!	!	!	!LO:SIC:v:s=8ff#	!	!	!
.	.	.	.	.	.	8D\J	.	8c#\J	.	8gJ 8A/	.	.	.	.	.	.	.	.	.	8ff\J	.	8fff#\J	.
*	*	*	*	*	*	*	*	*rep	*	*rep	*	*	*	*	*	*	*	*	*	*	*	*	*
.	.	.	.	.	.	8D\L	.	8c#\L	.	8gL 8A/	.	.	.	.	.	.	.	.	.	8ee\L	.	8eee\L	.
.	.	.	.	.	.	8r	.	8r	.	8r	.	.	.	.	.	.	.	.	.	8r	.	8r	.
.	.	.	.	.	.	8D\J	.	8c#\J	.	8gJ 8A/	.	.	.	.	.	.	.	.	.	8g\J	.	8gg\J	.
*	*	*	*	*	*	*Xrep	*	*Xrep	*	*Xrep	*	*	*	*	*	*	*	*	*	*	*	*	*
=33	=33	=33	=33	=33	=33	=33	=33	=33	=33	=33	=33	=33	=33	=33	=33	=33	=33	=33	=33	=33	=33	=33	=33
*	*	*	*	*	*	*rep	*	*rep	*	*rep	*	*	*	*	*	*	*	*	*	*	*	*	*
2.r	.	2.r	.	2.r	.	8D\L	.	8c#\L	.	8gL 8A/	.	2.r	.	2.r	.	2.r	.	2.r	.	8.e/L	.	8.ee\L	.
.	.	.	.	.	.	8r	.	8r	.	8r	.	.	.	.	.	.	.	.	.	.	.	.	.
.	.	.	.	.	.	.	.	.	.	.	.	.	.	.	.	.	.	.	.	16g/K	.	16gg\K	.
.	.	.	.	.	.	8D\J	.	8c#\J	.	8gJ 8A/	.	.	.	.	.	.	.	.	.	8a/J	.	8aa\J	.
!	!	!	!	!	!	!	!	!	!	!	!	!	!	!	!	!	!	!	!	!LO:SIC:v:s=4bn	!	!	!
.	.	.	.	.	.	8D\L	.	8c#\L	.	8gL 8A/	.	.	.	.	.	.	.	.	.	4b-/	.	4bb\	.
.	.	.	.	.	.	8r	.	8r	.	8r	.	.	.	.	.	.	.	.	.	.	.	.	.
.	.	.	.	.	.	8D\J	.	8c#\J	.	8gJ 8A/	.	.	.	.	.	.	.	.	.	8a/	.	8aa\	.
*	*	*	*	*	*	*Xrep	*	*Xrep	*	*Xrep	*	*	*	*	*	*	*	*	*	*	*	*	*
!!LO:PB:g=original
=34	=34	=34	=34	=34	=34	=34	=34	=34	=34	=34	=34	=34	=34	=34	=34	=34	=34	=34	=34	=34	=34	=34	=34
*	*	*	*	*	*	*	*	*	*	*	*	*	*	*	*	*^	*	*^	*	*	*	*	*
!	!	!	!	!	!	!	!	!	!	!	!	!	!	!	!	!	!	!	!	!	!	!LO:SIC:v:s=8f#	!	!	!
4r	.	4r	.	4r	.	8D\L	.	8d\L	.	8f#L 8A/	.	4r	.	4r	.	4r	4.ryy	.	4r	4.ryy	.	8f/L	.	8ff#\L	.
.	.	.	.	.	.	8r	.	8r	.	8r	.	.	.	.	.	.	.	.	.	.	.	8r	.	8r	.
8r	.	8r	.	8r	.	8D\J	.	8d\J	.	8f#J 8A/	.	8r	.	8r	.	8r	.	.	8r	.	.	8d/J	.	8dd\J	.
.	.	.	.	.	.	.	.	.	.	.	.	.	.	.	.	.	.	.	.	.	.	.	.	(16qqa/LL	.
.	.	.	.	.	.	.	.	.	.	.	.	.	.	.	.	.	.	.	.	.	.	.	.	16qqdd/	.
!	!	!	!	!	!	!	!	!	!	!	!	!	!	!	!	!LO:SIC:v:s=4.f#	!	!	!	!	!	!	!	!	!
.	.	.	.	.	.	.	.	.	.	.	.	.	.	.	.	.	.	.	.	.	.	.	.	16qqff#/JJ	.
!	!LO:DY:rj:a	!	!	!	!LO:DY:rj	!	!LO:DY:rj	!	!	!	!LO:DY:rj	!	!LO:DY:rj	!	!	!	!	!LO:DY:rj	!	!	!LO:DY:rj	!	!	!	!LO:DY:rj
4Ra/	f	4Ree\	.	4D^/	f	8D\L	f	8aL 8d\	.	8ddL 8f# 8A/	f	4ff# 4a 4d\	f	4D\	.	[4.f/	[4.d\	fp	[4.f#/	[4.d\	fp	[4.a/	.	[4.aa\)	f
.	.	.	.	.	.	8r	p	8r	.	8r	p	.	.	.	.	.	.	.	.	.	.	.	.	.	.
8r	.	8r	.	8r	.	8D\J	.	8d\J	.	8f#J 8A/	.	8r	.	8r	.	.	.	.	.	.	.	.	.	.	.
=35	=35	=35	=35	=35	=35	=35	=35	=35	=35	=35	=35	=35	=35	=35	=35	=35	=35	=35	=35	=35	=35	=35	=35	=35	=35
*	*	*	*	*	*	*	*	*	*	*	*	*	*	*	*	*2\right	*	*	*	*	*	*	*	*	*
!	!	!	!	!LO:TX:a:t=3.	!	!	!	!	!	!	!	!	!	!	!	!LO:SIC:v:s=2.f#	!	!	!	!	!	!	!	!	!
2.r	.	2.r	.	2.r	.	8D\L	.	8d\L	.	8f#L 8A/	.	2.r	.	2.r	.	2.f/]	2.d\]	.	2.f#/]	2.d\]	.	8.a/L]	.	8.aa\L]	.
.	.	.	.	.	.	8r	.	8r	.	8r	.	.	.	.	.	.	.	.	.	.	.	.	.	.	.
!	!	!	!	!	!	!	!	!	!	!	!	!	!	!	!	!	!	!	!	!	!	!	!	!	!LO:DY:rj
.	.	.	.	.	.	.	.	.	.	.	.	.	.	.	.	.	.	.	.	.	.	16g#X/K	.	16gg#X\K|	p
.	.	.	.	.	.	8D\J	.	8d\J	.	8f#J 8A/	.	.	.	.	.	.	.	.	.	.	.	8a/J	.	8aa\J|	.
*	*	*	*	*	*	*rep	*	*rep	*	*rep	*	*	*	*	*	*	*	*	*	*	*	*	*	*	*
!	!	!	!	!	!	!	!	!	!	!	!	!	!	!	!	!	!	!	!	!	!	!LO:SIC:v:s=8ff#	!	!	!
!	!	!	!	!	!	!	!	!	!	!	!	!	!	!	!	!	!	!	!	!	!	!LO:TX:t=P:problem=mixed beam	!	!	!
.	.	.	.	.	.	8D\L	.	8d\L	.	8f#L 8A/	.	.	.	.	.	.	.	.	.	.	.	8ff\L	.	8fff#\L|	.
.	.	.	.	.	.	8r	.	8r	.	8r	.	.	.	.	.	.	.	.	.	.	.	8r	.	8r	.
.	.	.	.	.	.	8D\J	.	8d\J	.	8f#J 8A/	.	.	.	.	.	.	.	.	.	.	.	8a/J	.	8aa\J|	.
*	*	*	*	*	*	*Xrep	*	*Xrep	*	*Xrep	*	*	*	*	*	*	*	*	*	*	*	*	*	*	*
*	*	*	*	*	*	*	*	*	*	*	*	*	*	*	*	*v	*v	*	*	*	*	*	*	*	*
*	*	*	*	*	*	*	*	*	*	*	*	*	*	*	*	*	*	*v	*v	*	*	*	*	*
=36	=36	=36	=36	=36	=36	=36	=36	=36	=36	=36	=36	=36	=36	=36	=36	=36	=36	=36	=36	=36	=36	=36	=36
*	*	*	*	*	*	*rep	*	*	*	*	*	*	*	*	*	*	*	*	*	*	*	*	*
!	!	!	!	!	!	!	!	!	!	!	!	!	!	!	!	!LO:SIC:v:n=2:s=2.c#	!	!	!	!LO:TX:t=P:problem=mixed beam	!	!	!
2.r	.	2.r	.	2.r	.	8D\L	.	8c#\L	.	8gL 8A/	.	2.r	.	2.r	.	2.g 2.c/	.	2.e 2.A/	.	8gn/L	.	8ggn\L	.
.	.	.	.	.	.	8r	.	8r	.	8r	.	.	.	.	.	.	.	.	.	8r	.	8r	.
!	!	!	!	!	!	!	!	!	!	!	!	!	!	!	!	!	!	!	!	!LO:SIC:v:s=8ff#	!	!	!
.	.	.	.	.	.	8D\J	.	8c#\J	.	8gJ 8A/	.	.	.	.	.	.	.	.	.	8ff\J	.	8fff#\J	.
*	*	*	*	*	*	*	*	*rep	*	*rep	*	*	*	*	*	*	*	*	*	*	*	*	*
!	!	!	!	!	!	!	!	!	!	!	!	!	!	!	!	!	!	!	!	!LO:TX:t=P:problem=mixed beam	!	!	!
.	.	.	.	.	.	8D\L	.	8c#\L	.	8gL 8A/	.	.	.	.	.	.	.	.	.	8ee/L	.	8eee\L	.
.	.	.	.	.	.	8r	.	8r	.	8r	.	.	.	.	.	.	.	.	.	8r	.	8r	.
.	.	.	.	.	.	8D\J	.	8c#\J	.	8gJ 8A/	.	.	.	.	.	.	.	.	.	8g\J	.	8gg\J	.
*	*	*	*	*	*	*Xrep	*	*Xrep	*	*Xrep	*	*	*	*	*	*	*	*	*	*	*	*	*
=37	=37	=37	=37	=37	=37	=37	=37	=37	=37	=37	=37	=37	=37	=37	=37	=37	=37	=37	=37	=37	=37	=37	=37
*	*	*	*	*	*	*rep	*	*rep	*	*rep	*	*	*	*	*	*	*	*	*	*	*	*	*
!	!	!	!	!	!	!	!	!	!	!	!	!	!	!	!	!LO:SIC:v:n=2:s=2.c#	!	!	!	!	!	!	!
2.r	.	2.r	.	2.r	.	8D\L	.	8c#\L	.	8gL 8A/	.	8.ee\L	.	2.r	.	2.g 2.c/	.	2.e 2.A/	.	8.e/L	.	8.ee\L	.
.	.	.	.	.	.	8r	.	8r	.	8r	.	.	.	.	.	.	.	.	.	.	.	.	.
.	.	.	.	.	.	.	.	.	.	.	.	16gg\K	.	.	.	.	.	.	.	16g/K	.	16gg\K	.
.	.	.	.	.	.	8D\J	.	8c#\J	.	8gJ 8A/	.	8aa\J	.	.	.	.	.	.	.	8a/J	.	8aa\J	.
!	!	!	!	!	!	!	!	!	!	!	!	!	!	!	!	!	!	!	!	!LO:SIC:v:s=4bn	!	!	!
.	.	.	.	.	.	8D\L	.	8c#\L	.	8gL 8A/	.	4bb\	.	.	.	.	.	.	.	4b-/	.	4bb\	.
.	.	.	.	.	.	8r	.	8r	.	8r	.	.	.	.	.	.	.	.	.	.	.	.	.
.	.	.	.	.	.	8D\J	.	8c#\J	.	8gJ 8A/	.	8aa\	.	.	.	.	.	.	.	8a/	.	8aa\	.
*	*	*	*	*	*	*Xrep	*	*Xrep	*	*Xrep	*	*	*	*	*	*	*	*	*	*	*	*	*
=38	=38	=38	=38	=38	=38	=38	=38	=38	=38	=38	=38	=38	=38	=38	=38	=38	=38	=38	=38	=38	=38	=38	=38
!	!	!	!	!	!	!	!	!	!	!	!	!	!	!	!	!LO:SIC:v:n=1:s=8f#	!	!	!	!	!	!	!
8r	.	8r	.	8r	.	8D\	.	8d\	.	8f# 8A/	.	8dd\	.	8r	.	8f 8d/	.	8f# 8d\	.	8d/	.	8dd\	.
!	!LO:DY:rj	!	!	!	!LO:DY:rj	!	!LO:DY:rj	!	!	!	!LO:DY:rj	!	!LO:DY:rj	!	!	!	!LO:DY:rj	!	!LO:DY:rj	!LO:SIC:v:n=1:s=8cc#	!	!	!LO:DY:rj
8Ra/L	f	8Ree\L	.	8AA'/L	f	8A\L	f	8cc#L 8e\	.	8ggL 8a\	f	8ccc#L 8a\	f	8AA/L	.	8aL 8e/	f	8eL 8A/	f	8ccL 8g/	.	8ccc#\L	f
!	!	!	!	!	!	!	!	!	!	!	!	!	!	!	!	!	!	!	!	!LO:SIC:v:n=2:s=8f#	!	!	!
8Ra/J	.	8Ree\J	.	8D'/J	.	8D\J	.	8ddJ 8f#\	.	8ff#J 8a\	.	8dddJ 8a 8d\	.	8D/J	.	8aJ 8d/	.	8dJ 8F#/	.	8ddJ 8f/	.	8ddd\J	.
8r;	.	8r;	.	8r;	.	8r;	.	8r;	.	8r;	.	8r;	.	8r;	.	8r;	.	8r;	.	8r;	.	8r;	.
==	==	==	==	==	==	==	==	==	==	==	==	==	==	==	==	==	==	==	==	==	==	==	==
*-	*-	*-	*-	*-	*-	*-	*-	*-	*-	*-	*-	*-	*-	*-	*-	*-	*-	*-	*-	*-	*-	*-	*-
!!!system-decoration: <(g1,g2)>{(g3)}{(g4)}
!!!RDF**kern: > = above
!!!RDF**kern: < = below
!!!RDF**kern: | = vertical stroke
!!!ENC: Andrzej Kubiczek
!!!END: 2021-05-16
!!!ENC: Tomasz Grochalski
!!!END: 2021-04-20
!!!YEC: Copyright 2022 Narodowy Instytut Fryderyka Chopina (https://polishscores.org)
!!!YEM: License CC-BY-4.0 (https://creativecommons.org/licenses/by/4.0)
